dist/upp/assets/img/submenu-3.svg

<svg width="32" height="32" viewBox="0 0 32 32" fill="none" xmlns="http://www.w3.org/2000/svg">
<path d="M29.5733 11.3799H2.48659C2.24329 11.3799 2 11.2177 2 10.8933C2 10.65 2.24329 10.4067 2.48659 10.4067H29.5733C29.8166 10.4067 30.0599 10.65 30.0599 10.8933C30.0599 11.2177 29.8166 11.3799 29.5733 11.3799Z" fill="#090909"/>
<path d="M10.1098 8.46039H6.94696C5.89269 8.46039 5.00061 7.56832 5.00061 6.51404V5.94635C5.00061 4.89208 5.89269 4 6.94696 4H10.1098C11.1641 4 12.0561 4.89208 12.0561 5.94635V6.51404C12.1372 7.56832 11.2452 8.46039 10.1098 8.46039ZM6.94696 4.97318C6.37928 4.97318 5.97379 5.37867 5.97379 5.94635V6.51404C5.97379 7.08173 6.37928 7.48722 6.94696 7.48722H10.1098C10.6775 7.48722 11.083 7.08173 11.083 6.51404V5.94635C11.083 5.37867 10.6775 4.97318 10.1098 4.97318H6.94696Z" fill="#090909"/>
<path d="M25.113 8.46039H21.9501C20.8959 8.46039 20.0038 7.56832 20.0038 6.51404V5.94635C20.0038 4.89208 20.8959 4 21.9501 4H25.113C26.1672 4 27.0593 4.89208 27.0593 5.94635V6.51404C27.0593 7.56832 26.1672 8.46039 25.113 8.46039ZM21.9501 4.97318C21.3825 4.97318 20.977 5.37867 20.977 5.94635V6.51404C20.977 7.08173 21.3825 7.48722 21.9501 7.48722H25.113C25.6806 7.48722 26.0861 7.08173 26.0861 6.51404V5.94635C26.0861 5.37867 25.6806 4.97318 25.113 4.97318H21.9501Z" fill="#090909"/>
<path d="M28.3569 28.086H3.70306C2.81098 28.086 2 27.3561 2 26.383V7.7304C2 6.83832 2.72988 6.02734 3.70306 6.02734H5.48722C5.73051 6.02734 5.97381 6.27064 5.97381 6.51393C5.97381 7.08162 6.3793 7.48711 6.94698 7.48711H10.1098C10.6775 7.48711 11.083 7.08162 11.083 6.51393C11.083 6.27064 11.3263 6.02734 11.5696 6.02734H20.4093C20.6526 6.02734 20.8959 6.27064 20.8959 6.51393C20.8959 7.08162 21.3013 7.48711 21.869 7.48711H25.0319C25.5995 7.48711 26.005 7.08162 26.005 6.51393C26.005 6.27064 26.2483 6.02734 26.4916 6.02734H28.2758C29.1679 6.02734 29.9788 6.75723 29.9788 7.7304V26.4641C30.0599 27.3561 29.3301 28.086 28.3569 28.086ZM3.70306 7.00052C3.29757 7.00052 2.97318 7.32491 2.97318 7.7304V26.4641C2.97318 26.8696 3.29757 27.1939 3.70306 27.1939H28.3569C28.7624 27.1939 29.0868 26.8696 29.0868 26.4641V7.7304C29.0868 7.32491 28.7624 7.00052 28.3569 7.00052H26.9782C26.7349 7.8115 26.005 8.46029 25.113 8.46029H21.9501C21.0581 8.46029 20.2471 7.8115 20.0849 7.00052H12.1373C11.894 7.8115 11.1641 8.46029 10.272 8.46029H6.94698C6.0549 8.46029 5.24392 7.8115 5.00063 7.00052H3.70306Z" fill="#090909"/>
<path d="M9.40612 17.8927H6.48659C6.24329 17.8927 6 17.6494 6 17.4061V14.4866C6 14.2433 6.24329 14 6.48659 14H9.40612C9.64941 14 9.89271 14.2433 9.89271 14.4866V17.4061C9.89271 17.6494 9.73051 17.8927 9.40612 17.8927ZM6.97318 16.9195H8.91953V14.9732H6.97318V16.9195Z" fill="#090909"/>
<path d="M17.2988 17.8927H14.3793C14.136 17.8927 13.8927 17.6494 13.8927 17.4061V14.4866C13.8927 14.2433 14.136 14 14.3793 14H17.2988C17.5421 14 17.7854 14.2433 17.7854 14.4866V17.4061C17.7854 17.6494 17.5421 17.8927 17.2988 17.8927ZM14.8659 16.9195H16.8122V14.9732H14.8659V16.9195Z" fill="#090909"/>
<path d="M25.1915 17.8927H22.272C22.0287 17.8927 21.7854 17.6494 21.7854 17.4061V14.4866C21.7854 14.2433 22.0287 14 22.272 14H25.1915C25.4348 14 25.6781 14.2433 25.6781 14.4866V17.4061C25.6781 17.6494 25.4348 17.8927 25.1915 17.8927ZM22.6775 16.9195H24.6238V14.9732H22.6775V16.9195Z" fill="#090909"/>
<path d="M9.40612 23.8927H6.48659C6.24329 23.8927 6 23.6494 6 23.4061V20.4866C6 20.2433 6.24329 20 6.48659 20H9.40612C9.64941 20 9.89271 20.2433 9.89271 20.4866V23.4061C9.89271 23.6494 9.73051 23.8927 9.40612 23.8927ZM6.97318 22.9195H8.91953V20.9732H6.97318V22.9195Z" fill="#090909"/>
<path d="M17.2988 23.8927H14.3793C14.136 23.8927 13.8927 23.6494 13.8927 23.4061V20.4866C13.8927 20.2433 14.136 20 14.3793 20H17.2988C17.5421 20 17.7854 20.2433 17.7854 20.4866V23.4061C17.7854 23.6494 17.5421 23.8927 17.2988 23.8927ZM14.8659 22.9195H16.8122V20.9732H14.8659V22.9195Z" fill="#090909"/>
<path d="M25.1915 23.8927H22.272C22.0287 23.8927 21.7854 23.6494 21.7854 23.4061V20.4866C21.7854 20.2433 22.0287 20 22.272 20H25.1915C25.4348 20 25.6781 20.2433 25.6781 20.4866V23.4061C25.6781 23.6494 25.4348 23.8927 25.1915 23.8927ZM22.6775 22.9195H24.6238V20.9732H22.6775V22.9195Z" fill="#090909"/>
</svg>

<svg width="32" height="32" fill="none" xmlns="http://www.w3.org/2000/svg"><path d="M29.573 11.38H2.487c-.244 0-.487-.162-.487-.487 0-.243.243-.486.487-.486h27.086c.244 0 .487.243.487.486 0 .325-.243.487-.487.487zM10.11 8.46H6.947c-1.054 0-1.946-.892-1.946-1.946v-.568C5 4.892 5.893 4 6.947 4h3.163c1.054 0 1.946.892 1.946 1.946v.568c.081 1.054-.81 1.946-1.946 1.946zM6.947 4.973c-.568 0-.973.406-.973.973v.568c0 .568.405.973.973.973h3.163c.568 0 .973-.405.973-.973v-.568c0-.567-.405-.973-.973-.973H6.947zM25.113 8.46H21.95c-1.054 0-1.946-.892-1.946-1.946v-.568c0-1.054.892-1.946 1.946-1.946h3.163c1.054 0 1.946.892 1.946 1.946v.568c0 1.054-.892 1.946-1.946 1.946zM21.95 4.973c-.567 0-.973.406-.973.973v.568c0 .568.405.973.973.973h3.163c.568 0 .973-.405.973-.973v-.568c0-.567-.405-.973-.973-.973H21.95z" fill="#090909"/><path d="M28.357 28.086H3.703c-.892 0-1.703-.73-1.703-1.703V7.73c0-.892.73-1.703 1.703-1.703h1.784c.244 0 .487.244.487.487 0 .568.405.973.973.973h3.163c.568 0 .973-.405.973-.973 0-.243.243-.487.487-.487h8.84c.243 0 .486.244.486.487 0 .568.405.973.973.973h3.163c.567 0 .973-.405.973-.973 0-.243.243-.487.487-.487h1.784c.892 0 1.703.73 1.703 1.703v18.734c.08.892-.649 1.622-1.622 1.622zM3.703 7.001a.727.727 0 00-.73.73v18.733c0 .406.325.73.73.73h24.654c.405 0 .73-.324.73-.73V7.73a.727.727 0 00-.73-.73h-1.379c-.243.811-.973 1.46-1.865 1.46H21.95c-.892 0-1.703-.649-1.865-1.46h-7.948c-.243.811-.973 1.46-1.865 1.46H6.947c-.892 0-1.703-.649-1.946-1.46H3.703z" fill="#090909"/><path d="M9.406 17.893h-2.92c-.243 0-.486-.244-.486-.487v-2.92c0-.243.243-.486.487-.486h2.92c.242 0 .486.243.486.487v2.92c0 .242-.162.486-.487.486zm-2.433-.974H8.92v-1.946H6.973v1.946zm10.326.974h-2.92c-.243 0-.486-.244-.486-.487v-2.92c0-.243.243-.486.486-.486h2.92c.243 0 .486.243.486.487v2.92c0 .242-.243.486-.486.486zm-2.433-.974h1.946v-1.946h-1.946v1.946zm10.326.974h-2.92c-.243 0-.487-.244-.487-.487v-2.92c0-.243.244-.486.487-.486h2.92c.243 0 .486.243.486.487v2.92c0 .242-.243.486-.486.486zm-2.515-.974h1.947v-1.946h-1.947v1.946zM9.406 23.893h-2.92c-.243 0-.486-.244-.486-.487v-2.92c0-.243.243-.486.487-.486h2.92c.242 0 .486.243.486.487v2.92c0 .242-.162.486-.487.486zm-2.433-.974H8.92v-1.946H6.973v1.947zm10.326.974h-2.92c-.243 0-.486-.244-.486-.487v-2.92c0-.243.243-.486.486-.486h2.92c.243 0 .486.243.486.487v2.92c0 .242-.243.486-.486.486zm-2.433-.974h1.946v-1.946h-1.946v1.947zm10.326.974h-2.92c-.243 0-.487-.244-.487-.487v-2.92c0-.243.244-.486.487-.486h2.92c.243 0 .486.243.486.487v2.92c0 .242-.243.486-.486.486zm-2.515-.974h1.947v-1.946h-1.947v1.947z" fill="#090909"/></svg>
